X: 15
T: Tick Dance Song (d)
C: Anon.
%%abc-version 2.0
%%abcx-abcm2ps-target-version 5.9.1 (29 Sep 2008)
%%abc-creator hum2abc beta
%%abcx-conversion-date 2020/08/10 20:56:09
%%abc-copyright Electronic Copyright 2000 David Huron
%%abc-edited-by David Huron
%%abcx-initial-encoding-date August 27, 2000
%%humdrum-veritas 1909793472
%%humdrum-veritas-data 4137404043
%%linebreak <none>
%%barnumbers 0
L: 1/8
M: 2/4
Q: 1/4=132
K: A clef=bass
A, A,- A, A, | 
A,2B,2 | 
C B,- B, A, | 
F,2A,2 | 
A,2F, F, | 
F,2F, z | 
F,3C, | 
F,2F,2 | 
A,2F, F, | 
F,2F, z | 
F,3C, | 
F,2F, z/ C/ | 
C3C | 
A,2A, z/ C/ | 
B,3A, | 
F,2A,2 | 
A,2F, F, | 
F,2F, z | 
F,3C, | 
F,2G, z | 
A,2F, F, | 
F,2F, z | 
F,3C, | 
F,2F, z/ B,/ | 
B,3B, | 
A,2A, z/ C/ | 
B,3A, | 
F,2A,2 | 
A,2F, F, | 
F,2F, z | 
F,3C, | 
F,2G, z | 
A,2F, F, | 
F,2F, z | 
F,3C, | 
F,2F, z |]  


